public/assets/icons/add-post.svg

<svg width="36" height="36" viewBox="0 0 36 36" fill="none" xmlns="http://www.w3.org/2000/svg">
<path fill-rule="evenodd" clip-rule="evenodd" d="M27.75 1.875C28.3713 1.875 28.875 2.37868 28.875 3V7.125H33C33.6213 7.125 34.125 7.62868 34.125 8.25C34.125 8.87132 33.6213 9.375 33 9.375H28.875V13.5C28.875 14.1213 28.3713 14.625 27.75 14.625C27.1287 14.625 26.625 14.1213 26.625 13.5V9.375H22.5C21.8787 9.375 21.375 8.87132 21.375 8.25C21.375 7.62868 21.8787 7.125 22.5 7.125H26.625V3C26.625 2.37868 27.1287 1.875 27.75 1.875Z" fill="white"/>
<path fill-rule="evenodd" clip-rule="evenodd" d="M18 1.875L17.9139 1.875C14.4513 1.87498 11.7378 1.87497 9.62056 2.15962C7.45345 2.45098 5.74342 3.05899 4.4012 4.4012C3.05899 5.74342 2.45098 7.45345 2.15962 9.62056C1.87497 11.7378 1.87498 14.4513 1.875 17.9139V18.0861C1.87498 21.5487 1.87497 24.2622 2.15962 26.3794C2.45098 28.5465 3.05899 30.2566 4.4012 31.5988C5.74342 32.941 7.45345 33.549 9.62056 33.8404C11.7378 34.125 14.4513 34.125 17.9139 34.125H18.0861C21.5487 34.125 24.2622 34.125 26.3794 33.8404C28.5465 33.549 30.2566 32.941 31.5988 31.5988C32.941 30.2566 33.549 28.5465 33.8404 26.3794C34.125 24.2622 34.125 21.5487 34.125 18.0861V18C34.125 17.3787 33.6213 16.875 33 16.875C32.3787 16.875 31.875 17.3787 31.875 18C31.875 21.5673 31.8726 24.1297 31.6104 26.0796C31.6001 26.1566 31.5894 26.2323 31.5783 26.3068L27.4173 22.5619C25.4682 20.8076 22.5655 20.633 20.42 22.1407L19.9727 22.4551C19.2273 22.979 18.2131 22.8912 17.5688 22.2469L11.1342 15.8123C9.43111 14.1092 6.6992 14.0182 4.88657 15.6042L4.12646 16.2693C4.13329 13.5809 4.17186 11.5395 4.38956 9.92037C4.64737 8.00276 5.13771 6.84668 5.99219 5.99219C6.84668 5.13771 8.00276 4.64737 9.92037 4.38956C11.8703 4.12739 14.4327 4.125 18 4.125C18.6213 4.125 19.125 3.62132 19.125 3C19.125 2.37868 18.6213 1.875 18 1.875ZM4.38956 26.0796C4.64737 27.9972 5.13771 29.1533 5.99219 30.0078C6.84668 30.8623 8.00276 31.3526 9.92037 31.6104C11.8703 31.8726 14.4327 31.875 18 31.875C21.5673 31.875 24.1297 31.8726 26.0796 31.6104C27.9972 31.3526 29.1533 30.8623 30.0078 30.0078C30.3731 29.6425 30.6719 29.2221 30.9143 28.7106C30.856 28.6749 30.8001 28.6334 30.7474 28.586L25.9121 24.2343C24.7426 23.1817 23.001 23.0769 21.7138 23.9816L21.2665 24.296C19.6264 25.4485 17.3952 25.2553 15.9778 23.8379L9.54323 17.4033C8.67772 16.5378 7.28937 16.4915 6.36819 17.2976L4.12557 19.2598C4.12944 22.1826 4.15933 24.3672 4.38956 26.0796Z" fill="white"/>
</svg>

<svg width="36" height="36" viewBox="0 0 36 36" fill="none" xmlns="http://www.w3.org/2000/svg"><path fill-rule="evenodd" clip-rule="evenodd" d="M27.75 1.875c.621 0 1.125.504 1.125 1.125v4.125H33a1.125 1.125 0 0 1 0 2.25h-4.125V13.5a1.125 1.125 0 0 1-2.25 0V9.375H22.5a1.125 1.125 0 0 1 0-2.25h4.125V3c0-.621.504-1.125 1.125-1.125" fill="#fff"/><path fill-rule="evenodd" clip-rule="evenodd" d="M18 1.875h-.086c-3.463 0-6.176 0-8.293.285-2.168.291-3.878.899-5.22 2.241s-1.95 3.052-2.241 5.22c-.285 2.117-.285 4.83-.285 8.293v.172c0 3.463 0 6.176.285 8.293.291 2.168.899 3.878 2.241 5.22s3.052 1.95 5.22 2.241c2.117.285 4.83.285 8.293.285h.172c3.463 0 6.176 0 8.293-.285 2.168-.291 3.878-.899 5.22-2.241s1.95-3.052 2.241-5.22c.285-2.117.285-4.83.285-8.293V18a1.125 1.125 0 0 0-2.25 0c0 3.567-.002 6.13-.265 8.08q-.015.115-.032.227l-4.16-3.745a5.625 5.625 0 0 0-6.998-.421l-.447.314a1.875 1.875 0 0 1-2.404-.208l-6.435-6.435a4.575 4.575 0 0 0-6.247-.208l-.76.665c.006-2.688.045-4.73.263-6.349.257-1.917.748-3.073 1.602-3.928.855-.854 2.01-1.345 3.928-1.602 1.95-.263 4.513-.265 8.08-.265a1.125 1.125 0 0 0 0-2.25M4.39 26.08c.257 1.917.748 3.073 1.602 3.928.855.854 2.01 1.345 3.928 1.602 1.95.263 4.513.265 8.08.265s6.13-.002 8.08-.265c1.917-.257 3.073-.748 3.928-1.602a4.6 4.6 0 0 0 .906-1.297 1 1 0 0 1-.167-.125l-4.835-4.352a3.375 3.375 0 0 0-4.198-.252l-.447.314a4.125 4.125 0 0 1-5.29-.458l-6.434-6.435a2.325 2.325 0 0 0-3.175-.105L4.126 19.26c.003 2.923.033 5.107.264 6.82" fill="#fff"/></svg>
